X:1
T:Title
%%score { 1 | 2 }
L:1/8
M:4/4
K:Ab
V:1 treble nm="Grand Piano"
V:2 bass 
V:1
 z4 z2[Q:1/4=100] [CE][CE] | [CE]2 [CEA]2 [EAc]2 [DGB][CEA] | [A,FA]2 [A,DF]2 [A,FA]2 FF | %3
 E2 A2 [Ac]2 e>c | [GB]4 z2 [CE][CE] | [CE]2 [CEA]2 [Ec]2 [EB]2 | [FA]2 [DF]2 [FA]2 [DF]2 | %7
 [CE]2 A2 c2 B2 | [A,CA]6 z2 | [Ec]4- [Ec]>[EB] [A,FA]>[A,DF] | [A,CE]4 [CEA]2 z2 | [EGB]4 [EAc]4 | %12
 [GB]>[GB] [Gd]>[Ac] [GB]4 | [Ec]4- [Ec]>[EB] [A,FA]>[A,DF] | [A,CE]4 [CEA]2 [A,EA]2 | B2 B2 c3 B | %16
[M:3/4] [CA]6 |] %17
V:2
 z4 z2 [A,,A,][A,,A,] | [A,,A,]2 A,,2 A,,2 A,,A,, | D,2 D,2 D,2 [D,A,D][D,A,D] | %3
 [E,A,C]2 [E,CE]2 [E,E]2 [A,EA]2 | [E,E]4 z2 [A,,A,][A,,A,] | [A,,A,]2 A,,2 [A,,A,]2 [C,A,]2 | %6
 [D,A,]2 [D,A,]2 [D,A,]2 [D,A,]2 | [A,,A,]2 [A,CE]2 [E,A,E]2 [E,G,D]2 | A,,6 z2 | %9
 A,>A, A,>A, A,>A, D,>D, | A,,4 A,2 z2 | E,4 A,4 | [E,E]>[E,E] [E,E]>[E,E] [E,E]4 | %13
 A,>A, A,>A, A,>A, D,>D, | A,,4 A,2 C,2 | [E,G,E]2 [E,G,E]2 [E,A,E]3 [E,G,D] |[M:3/4] [A,,A,]6 |] %17

